dist/images/svg/instagram.svg

<?xml version="1.0" encoding="UTF-8"?>
<svg width="24px" height="24px" viewBox="0 0 24 24" version="1.1" xmlns="http://www.w3.org/2000/svg" xmlns:xlink="http://www.w3.org/1999/xlink">
    <!-- Generator: Sketch 49.1 (51147) - http://www.bohemiancoding.com/sketch -->
    <title>Elements / Icons / S /  Instagram</title>
    <desc>Created with Sketch.</desc>
    <defs>
        <path d="M8,3 L16,3 C18.7614237,3 21,5.23857625 21,8 L21,16 C21,18.7614237 18.7614237,21 16,21 L8,21 C5.23857625,21 3,18.7614237 3,16 L3,8 C3,5.23857625 5.23857625,3 8,3 Z M8.5,4.5 C6.290861,4.5 4.5,6.290861 4.5,8.5 L4.5,15.5 C4.5,17.709139 6.290861,19.5 8.5,19.5 L15.5,19.5 C17.709139,19.5 19.5,17.709139 19.5,15.5 L19.5,8.5 C19.5,6.290861 17.709139,4.5 15.5,4.5 L8.5,4.5 Z M17,8 C16.4477153,8 16,7.55228475 16,7 C16,6.44771525 16.4477153,6 17,6 C17.5522847,6 18,6.44771525 18,7 C18,7.55228475 17.5522847,8 17,8 Z M12,16.5 C9.51471863,16.5 7.5,14.4852814 7.5,12 C7.5,9.51471863 9.51471863,7.5 12,7.5 C14.4852814,7.5 16.5,9.51471863 16.5,12 C16.5,14.4852814 14.4852814,16.5 12,16.5 Z M12,15 C13.6568542,15 15,13.6568542 15,12 C15,10.3431458 13.6568542,9 12,9 C10.3431458,9 9,10.3431458 9,12 C9,13.6568542 10.3431458,15 12,15 Z" id="path-1"></path>
    </defs>
    <g id="Symbols" stroke="none" stroke-width="1" fill="none" fill-rule="evenodd">
        <g id="Elements-/-Icons-/-S-/--Instagram">
            <mask id="mask-2" fill="white">
                <use xlink:href="#path-1"></use>
            </mask>
            <use id="Rectangle-Copy" fill="#fff" xlink:href="#path-1"></use>
        </g>
    </g>
</svg>

<svg width="24" height="24" xmlns="http://www.w3.org/2000/svg" xmlns:xlink="http://www.w3.org/1999/xlink"><defs><path d="M8 3h8a5 5 0 0 1 5 5v8a5 5 0 0 1-5 5H8a5 5 0 0 1-5-5V8a5 5 0 0 1 5-5zm.5 1.5a4 4 0 0 0-4 4v7a4 4 0 0 0 4 4h7a4 4 0 0 0 4-4v-7a4 4 0 0 0-4-4h-7zM17 8a1 1 0 1 1 0-2 1 1 0 0 1 0 2zm-5 8.5a4.5 4.5 0 1 1 0-9 4.5 4.5 0 0 1 0 9zm0-1.5a3 3 0 1 0 0-6 3 3 0 0 0 0 6z" id="a"/></defs><use fill="#fff" xlink:href="#a" fill-rule="evenodd"/></svg>
